X:193
T:Ragged beggar man - Johnson's Scot's Mus Museum
%%VWML:SBG-1-2-43-0
F:http://www.vwml.org/record/SBG/1/2/43
Z:Original Sibelius transcriptions by M. & S. Graebe
M:4/4
I:linebreak $
K:D
V:1 treble nm="P1"
V:1
 D | D E F G A F D D | D d d e c2 BA | d f e d B>c d B | A F E D E2 D B, |$ D3/2 E/ F G AF D D | %6
 D d d e c2 B A | d3/2 f/ e3/2 d/ B3/2 c/ d B | A F E D E2 D B, | D3/2 E/ F3/2 G/ AF D x | %10
T:Ragged beggar man - Johnson's Poor Pedlar
F:http://www.vwml.org/record/SBG/1/2/43
Z:Original Sibelius transcriptions by M. & S. Graebe
M:6/8
I:linebreak $
K:G
V:1 treble nm="P1"
V:1
 D | G2 G G2 G | G B c d2 d/ d/ | e f g g f e | (d3 d2) d | ef g e2 e |$ d2 D G2 G/ G/ | %7
 e f e d D | G2 G G2 G/ G/ | e f e d2 D | (G3 G2) z | %11
T:Ragged beggar man - Joyce's Irish music
F:http://www.vwml.org/record/SBG/1/2/43
Z:Original Sibelius transcriptions by M. & S. Graebe
M:4/4
I:linebreak $
K:D
V:1 treble nm="P1"
V:1
 A | Addd d2 cd | efgg f2 de | (fd) (c/A/)G A2 cd | e2 d2 d2 d=c |$ B2 BG A2 de | fd=cA G2 FG | %7
 AABB AFDF | E2 D2 D3 x | %9



